X:1
T:Title
%%score { ( 1 4 ) | ( 2 3 ) }
L:1/8
M:6/8
K:Db
V:1 treble nm="Grand Piano"
V:4 treble 
V:2 bass 
V:3 bass 
V:1
 z3 z2[Q:1/4=84] [DFA] | [DFA][A,DF][A,EG] .[A,FA]2 [DAc] | edB [FA]2 [FA] | %3
 [FA][DF][FA] [Fd]2 [DF]/F/ | FED E2 [DGA] | [DFA][A,DF][A,EG] [A,FA][Fd][Ac] | edB [FA]2 [FA] | %7
 [FA][DF][EA] [Fd]2 [A,DF] |[M:5/8][K:bass] [G,CE]3 [F,D]2 |[M:1/8][K:treble] A | %10
[M:3/4] AA B c2 e | [Fd]F [_FB] [=FA]2 [_CFA] | [B,E=G][A,DF] [=G,DE][Fd] [Ec][B,GB] | %13
 [D=GB]3 [CA]2 [C_GA] | [DFA][A,DF] [A,EG][A,FA] [Fd][Ac] | ed B [FA]2 [FA] | %16
 [FA][DF] [EA] [Fd]2 [A,DF] |[M:5/8][K:bass] [G,CE]3 [F,D]2 |] %18
V:2
 z3 z2 D, | D,D,D, z[K:treble] dF, | [G,B,G][G,B,G][G,DG][K:bass] [D,D]2 [D,D] | %3
 [D,D][D,A,][D,A,] [D,A,]2 z/ D/ | [E,=G,D][E,G,C][E,B,] [A,C]2 A,, | D,D,D, D,[D,A,][F,D] | %6
 [G,B,G][G,B,G][G,DG] [D,D]2 [D,D] | [D,D][D,A,][C,A,] [B,,F,]2 F,, |[M:5/8] A,,3 D,2 |[M:1/8] A, | %10
[M:3/4][K:treble] [A,C][A,C] [A,D=G] [A,EG]2 [A,CG] | [D,D][D,A,] .[D,=G,]2 B,=D, | %12
 E,E, E,[E,=G,] [E,G,]E, | E,4 EA, | D,D, D,D, [D,A,][F,D] | [G,B,G][G,B,G] [G,DG] [D,D]2 [D,D] | %16
 [D,D][D,A,] [C,A,] [B,,F,]2 F,, |[M:5/8] A,,3 D,2 |] %18
V:3
 x6 | z3 .D,3[K:treble] | x3[K:bass] x3 | z3 z2 [D,A,] | x6 | x6 | x6 | x6 |[M:5/8] x5 |[M:1/8] x | %10
[M:3/4][K:treble] x6 | z2 z .D,3 | x6 | z2 z .A,3 | x6 | x6 | x6 |[M:5/8] x5 |] %18
V:4
 x6 | x6 | x6 | x6 | x6 | x6 | x6 | x6 |[M:5/8][K:bass] x5 |[M:1/8][K:treble] x |[M:3/4] x6 | %11
 z2 z A, z2 | x6 | x6 | x6 | x6 | x6 |[M:5/8][K:bass] x5 |] %18

